dist/svgs/smartphone.svg

<!-- Generated by IcoMoon.io -->
<svg version="1.1" xmlns="http://www.w3.org/2000/svg" width="24" height="24" viewBox="0 0 24 24">
<title>smartphone</title>
<path d="M13 4c0 0.552-0.448 1-1 1s-1-0.448-1-1c0-0.552 0.448-1 1-1s1 0.448 1 1z"></path>
<path d="M18 0h-12c-1.7 0-3 1.3-3 3v18c0 1.7 1.3 3 3 3h12c1.7 0 3-1.3 3-3v-18c0-1.7-1.3-3-3-3zM5 8h14v10h-14v-10zM6 2h12c0.6 0 1 0.4 1 1v3h-14v-3c0-0.6 0.4-1 1-1zM18 22h-12c-0.6 0-1-0.4-1-1v-1h14v1c0 0.6-0.4 1-1 1z"></path>
</svg>

<svg xmlns="http://www.w3.org/2000/svg" width="24" height="24"><path d="M13 4a1 1 0 1 1-2 0 1 1 0 0 1 2 0z"/><path d="M18 0H6C4.3 0 3 1.3 3 3v18c0 1.7 1.3 3 3 3h12c1.7 0 3-1.3 3-3V3c0-1.7-1.3-3-3-3zM5 8h14v10H5V8zm1-6h12c.6 0 1 .4 1 1v3H5V3c0-.6.4-1 1-1zm12 20H6c-.6 0-1-.4-1-1v-1h14v1c0 .6-.4 1-1 1z"/></svg>
